icons/reserved-fill.svg

<svg viewBox="0 0 24 24" fill="currentColor" xmlns="http://www.w3.org/2000/svg">
    <path d="M13 15V19H16V21H8V19H11V15H4C3.44772 15 3 14.5523 3 14V4C3 3.44772 3.44772 3 4 3H20C20.5523 3 21 3.44772 21 4V14C21 14.5523 20.5523 15 20 15H13ZM8 8V10H16V8H8Z"/>
</svg>

<svg xmlns="http://www.w3.org/2000/svg" viewBox="0 0 24 24">
    <g>
        <path fill="none" d="M0 0h24v24H0z"/>
        <path d="M13 15v4h3v2H8v-2h3v-4H4a1 1 0 0 1-1-1V4a1 1 0 0 1 1-1h16a1 1 0 0 1 1 1v10a1 1 0 0 1-1 1h-7zM8 8v2h8V8H8z"/>
    </g>
</svg>
